apps/ui-icons/svgs/globe.svg

<svg viewBox="0 0 24 24" width="24" height="24"  fill="none" xmlns="http://www.w3.org/2000/svg">
<path fill-rule="evenodd" clip-rule="evenodd" d="M22 12C22 6.47715 17.5228 2 12 2C6.47715 2 2 6.47715 2 12C2 17.5228 6.47715 22 12 22C17.5228 22 22 17.5228 22 12ZM13.7467 18.1766C12.9482 19.7737 12.2151 20 12 20C11.7849 20 11.0518 19.7737 10.2533 18.1766C9.61429 16.8986 9.14295 15.094 9.02739 13L14.9726 13C14.8571 15.094 14.3857 16.8986 13.7467 18.1766ZM14.9726 11L9.02739 11C9.14295 8.90602 9.61429 7.10143 10.2533 5.82336C11.0518 4.22632 11.7849 4 12 4C12.2151 4 12.9482 4.22632 13.7467 5.82336C14.3857 7.10143 14.8571 8.90602 14.9726 11ZM16.9753 13C16.8545 15.4337 16.2974 17.6107 15.4627 19.2138C17.861 18.0605 19.5956 15.7464 19.9381 13H16.9753ZM19.9381 11H16.9753C16.8545 8.5663 16.2974 6.38927 15.4627 4.78617C17.861 5.93948 19.5956 8.25357 19.9381 11ZM7.02469 11C7.1455 8.5663 7.70258 6.38927 8.53731 4.78617C6.13899 5.93948 4.40437 8.25357 4.06189 11H7.02469ZM4.06189 13C4.40437 15.7464 6.13899 18.0605 8.53731 19.2138C7.70259 17.6107 7.1455 15.4337 7.02469 13H4.06189Z" fill="#171D26"/>
</svg>

<svg xmlns="http://www.w3.org/2000/svg" width="24" height="24" fill="none" viewBox="0 0 24 24">
  <path fill="#171D26" fill-rule="evenodd" d="M22 12c0-5.523-4.477-10-10-10S2 6.477 2 12s4.477 10 10 10 10-4.477 10-10Zm-8.253 6.177C12.948 19.774 12.215 20 12 20c-.215 0-.948-.226-1.747-1.823-.639-1.278-1.11-3.083-1.226-5.177h5.946c-.116 2.094-.587 3.899-1.226 5.177ZM14.973 11H9.027c.116-2.094.587-3.899 1.226-5.177C11.052 4.226 11.785 4 12 4c.215 0 .948.226 1.747 1.823.639 1.278 1.11 3.083 1.226 5.177Zm2.002 2c-.12 2.434-.678 4.61-1.512 6.214A8.007 8.007 0 0 0 19.938 13h-2.963Zm2.963-2h-2.963c-.12-2.434-.678-4.61-1.512-6.214A8.007 8.007 0 0 1 19.938 11ZM7.025 11c.12-2.434.678-4.61 1.512-6.214A8.007 8.007 0 0 0 4.062 11h2.963Zm-2.963 2a8.007 8.007 0 0 0 4.475 6.214C7.703 17.61 7.145 15.434 7.025 13H4.062Z" clip-rule="evenodd"/>
</svg>
